**kern	**kern
*staff2	*staff1
*clefF4	*clefG2
*k[f#]	*k[f#]
*met(c|)	*met(c|)
*M2/2	*M2/2
*G:	*G:
=-	=-
8bL 8dd 8gg	16GGLL
.	16G
8gg	16F#
.	16G
16bbL	16GG
16ggJJ	16GJJ
=241	=241
8ff#L	16FF#LL
.	16F#
8ff#	16E
.	16F#
16aaL	16FF#
16ff#JJ	16F#JJ
=242	=242
8eeL	16EELL
.	16E
8ee	16D#
.	16E
16ggL	16EE
16eeJJ	16EJJ
=243	=243
16bLL	4.DD# 4.D#
16ff#	.
16bb	.
16ff#	.
16bb	.
16ff#JJ	.
=244	=244
16bLL	8EL
16gg	.
16bb	8E
16gg	.
16bb	16GL
16ggJJ	16EJJ
=245	=245
16bLL	8DL
16ff	.
16bb	8D
16ff	.
16bb	16FL
16ffJJ	16DJJ
=246	=246
16ccLL	8CL
16ee	.
16ccc	8C
16ee	.
16ccc	16EL
16eeJJ	16CJJ
=247	=247
16ddLL	4.BBB- 4.BB-
16gg#	.
16ddd	.
16gg#	.
16ddd	.
16gg#JJ	.
=248	=248
16eeLL	4.AAA 4.AA
16ggn	.
16ccc#	.
16gg	.
16ccc#	.
16ggJJ	.
=249	=249
16ff#LL	4.DD# 4.D#
16aa	.
16cccn	.
16aa	.
16ccc	.
16aaJJ	.
=250	=250
16bLL	4.EE 4.E
16gg	.
16bb	.
16gg	.
16bb	.
16ggJJ	.
=251	=251
16ggLL	16BBLL
16g	16B
16f#	16A#
16g	16B
16gg	16BB
16gJJ	16BJJ
=252	=252
16ggLL	16CLL
16a	16c
16g#	16B
16a	16c
16gg	16C
16aJJ	16cJJ
=253	=253
16ggLL	16DLL
16b	16d
16a#	16c#
16b	16d
16gg	16D
16bJJ	16dJJ
=254	=254
16ggLL	16ELL
16cc	16e
16b	16d#
16cc	16e
16gg	16E
16ccJJ	16eJJ
=255	=255
16bbLL	16FLL
16dd	16f
16cc#	16e
16dd	16f
16bb	16F
16ddJJ	16fJJ
=256	=256
16cccLL	16ELL
16gg	16e
16ff#	16d#
16gg	16e
16ccc	16E
16ggJJ	16eJJ
=257	=257
16ccc#LL	16E-LL
16gg	16e-
16ff#	16d
16gg	16e-
16ccc#	16E-
16ggJJ	16e-JJ
=258	=258
4.dd; 4.gg; 4.bb; 4.ddd;	4.D; 4.G; 4.B; 4.d;
=259||	=259||
*-	*-
